**kern	**silbe	**harmony	**phrase	**leadinstrument	**rhyme	**timestamp	**harte
*ICvox	*	*M4/4	*	*	*	*	*M4/4
*VRlead	*	*	*	*	*	*	*
*Hstimme	*	*	*	*	*	*	*
*D:	*	*D:	*	*	*	*	*D:
*M4/4	*	*	*	*	*	*	*
*clefG2	*	*	*	*	*	*	*
r;	.	1r;	.	r	.	0	N.C.
=1	=1	=1	=1	=1	=1	=1	=1
*>Letter>A	*>Letter>A	*>Letter>A	*>Letter>A	*>Letter>A	*>Letter>A	*>Letter>A	*>Letter>A
*>Label>Intro	*>Label>Intro	*>Label>Intro	*>Label>Intro	*>Label>Intro	*>Label>Intro	*>Label>Intro	*>Label>Intro
1r	.	1DM	newline	guitar	.	0.279	D:maj
=2	=2	=2	=2	=2	=2	=2	=2
1r	.	2B-M	.	guitar	.	2.043	B-:maj
.	.	2CM	.	guitar	.	2.926	C:maj
=3	=3	=3	=3	=3	=3	=3	=3
1r	.	1DM	.	guitar	.	3.808	D:maj
=4	=4	=4	=4	=4	=4	=4	=4
1r	.	2B-M	.	guitar	.	5.573	B-:maj
.	.	2CM	.	guitar	.	6.455	C:maj
=5	=5	=5	=5	=5	=5	=5	=5
1r	.	1DM	.	guitar	.	7.338	D:maj
=6	=6	=6	=6	=6	=6	=6	=6
1r	.	2B-M	.	guitar	.	9.102	B-:maj
.	.	2CM	.	guitar	.	9.985	C:maj
=7	=7	=7	=7	=7	=7	=7	=7
1r	.	1DM	newline	guitar	.	10.867	D:maj
=8	=8	=8	=8	=8	=8	=8	=8
2r	.	1DM	.	guitar	.	12.608	D:maj
4.r	.	.	.	.	.	.	.
8d	We	.	.	.	.	.	.
=9	=9	=9	=9	=9	=9	=9	=9
*>Letter>B	*>Letter>B	*>Letter>B	*>Letter>B	*>Letter>B	*>Letter>B	*>Letter>B	*>Letter>B
*>Label>Verse	*>Label>Verse	*>Label>Verse	*>Label>Verse	*>Label>Verse	*>Label>Verse	*>Label>Verse	*>Label>Verse
8f#	rent-	1DM	newline	voice	.	14.348	D:maj
4f#	-ed	.	.	.	.	.	.
8f#	truck	.	.	.	.	.	.
4r	.	.	.	.	.	.	.
8f#	and	.	.	.	.	.	.
8d	a	.	.	.	.	.	.
=10	=10	=10	=10	=10	=10	=10	=10
8f#	se-	1DM	.	voice	.	16.077	D:maj
8f#	-mi	.	.	.	.	.	.
8d	to	.	.	.	.	.	.
4.f#	go.	.	.	.	A	.	.
4r	.	.	.	.	.	.	.
=11	=11	=11	=11	=11	=11	=11	=11
8f#	Trav-	1CM	.	voice	.	17.806	C:maj
8d	-el	.	.	.	.	.	.
8f#	down	.	.	.	.	.	.
8d	the	.	.	.	.	.	.
4f#	long	.	.	.	.	.	.
8f#	and	.	.	.	.	.	.
8d	the	.	.	.	.	.	.
=12	=12	=12	=12	=12	=12	=12	=12
8f#	wind-	1CM	.	voice	.	19.535	C:maj
4f#	-ing	.	.	.	.	.	.
4.f#	road.	.	.	.	A	.	.
4r	.	.	.	.	.	.	.
=13	=13	=13	=13	=13	=13	=13	=13
8f	Look	1B-M	.	voice	.	21.263	B-:maj
8f	on	.	.	.	.	.	.
8d	the	.	.	.	.	.	.
8f	map.	.	.	.	.	.	.
8r	.	.	.	.	.	.	.
8f	I	.	.	.	.	.	.
8f	think	.	.	.	.	.	.
8d	we've	.	.	.	.	.	.
=14	=14	=14	=14	=14	=14	=14	=14
8f	been	1B-M	.	voice	.	22.992	B-:maj
8f	there	.	.	.	.	.	.
8d	be-	.	.	.	.	.	.
4.f	-fore.	.	.	.	A	.	.
4r	.	.	.	.	.	.	.
=15	=15	=15	=15	=15	=15	=15	=15
8f	Close	1AM	.	voice	.	24.721	A:sus4
8f	up	.	.	.	.	.	.
8d	the	.	.	.	.	.	.
4f	doors;	.	.	.	A	.	.
8r	.	.	.	.	.	.	.
4f	Let's	.	.	.	.	.	.
=16	=16	=16	=16	=16	=16	=16	=16
8f	roll	1AM	.	voice	.	26.449	A:maj
4f	once	.	.	.	.	.	.
4.f	more.	.	.	.	A	.	.
4r	.	.	.	.	.	.	.
=17	=17	=17	=17	=17	=17	=17	=17
8f#	Cop's	1DM	.	voice	.	28.178	D:maj
8d	on	.	.	.	.	.	.
8d	the	.	.	.	.	.	.
8f#	corn-	.	.	.	.	.	.
8f#	-er.	.	.	.	.	.	.
8r	.	.	.	.	.	.	.
8f#	look	.	.	.	.	.	.
8d	he's	.	.	.	.	.	.
=18	=18	=18	=18	=18	=18	=18	=18
8f#	start-	1DM	.	voice	.	29.907	D:maj
8f#	-ing	.	.	.	.	.	.
8d	to	.	.	.	.	.	.
4.f#	write.	.	.	.	B	.	.
4r	.	.	.	.	.	.	.
=19	=19	=19	=19	=19	=19	=19	=19
8a	I	1CM	.	voice	.	31.636	C:maj
8a	don't	.	.	.	.	.	.
8a	need	.	.	.	.	.	.
8a	no	.	.	.	.	.	.
8a	ti-	.	.	.	.	.	.
8a	-cket;	.	.	.	.	.	.
8a	so	.	.	.	.	.	.
8a	I	.	.	.	.	.	.
=20	=20	=20	=20	=20	=20	=20	=20
8a	screamed	1CM	.	voice	.	33.364	C:maj
8a	out	.	.	.	.	.	.
8b	of	.	.	.	.	.	.
4.f#	sight	.	.	.	B	.	.
4r	.	.	.	.	.	.	.
=21	=21	=21	=21	=21	=21	=21	=21
8f	Drove	1B-M	.	voice	.	35.093	B-:maj
4f	so	.	.	.	.	.	.
8f	fast	.	.	.	.	.	.
4r	.	.	.	.	.	.	.
8f	that	.	.	.	.	.	.
8d	my	.	.	.	.	.	.
=22	=22	=22	=22	=22	=22	=22	=22
8f	eyes	1B-M	.	voice	.	36.822	B-:maj
4f	can't	.	.	.	.	.	.
4.f	see	.	.	.	C	.	.
4r	.	.	.	.	.	.	.
=23	=23	=23	=23	=23	=23	=23	=23
8f	Look	1AM	.	voice	.	38.55	A:sus4
8f	in	.	.	.	.	.	.
8d	the	.	.	.	.	.	.
8.f	mirror.	.	.	.	.	.	.
16d	Is	.	.	.	.	.	.
8d	he	.	.	.	.	.	.
4A	still	.	.	.	.	.	.
=24	=24	=24	=24	=24	=24	=24	=24
8f	foll-	1AM	.	voice	.	40.279	A:maj
8f	-ow-	.	.	.	.	.	.
8d	-ing	.	.	.	.	.	.
8f	me?.	.	.	.	C	.	.
8r	.	.	.	.	.	.	.
8a	Let	.	.	.	.	.	.
8a	it	.	.	.	.	.	.
[8a	roll	.	.	.	A	.	.
=25	=25	=25	=25	=25	=25	=25	=25
*>Letter>C	*>Letter>C	*>Letter>C	*>Letter>C	*>Letter>C	*>Letter>C	*>Letter>C	*>Letter>C
*>Label>Chorus	*>Label>Chorus	*>Label>Chorus	*>Label>Chorus	*>Label>Chorus	*>Label>Chorus	*>Label>Chorus	*>Label>Chorus
4a]	_	1DM	newline	voice	.	42.008	D:maj
4r	.	.	.	.	.	.	.
2r	.	.	.	.	.	.	.
=26	=26	=26	=26	=26	=26	=26	=26
2r	.	1GM	.	voice	.	43.746	G:maj
8r	.	.	.	.	.	.	.
8a	down	.	.	.	.	.	.
8a	the	.	.	.	.	.	.
[8a	high-	.	.	.	.	.	.
=27	=27	=27	=27	=27	=27	=27	=27
8a]	_	1DM	.	voice	.	45.484	D:maj
8f#	-way!.	.	.	.	.	.	.
4r	.	.	.	.	.	.	.
2r	.	.	.	.	.	.	.
=28	=28	=28	=28	=28	=28	=28	=28
2r	.	1GM	.	voice	.	47.223	G:maj
8r	.	.	.	.	.	.	.
8a	Let	.	.	.	.	.	.
8a	it	.	.	.	.	.	.
[8a	roll	.	.	.	A	.	.
=29	=29	=29	=29	=29	=29	=29	=29
4a]	_	1DM	.	voice	.	48.961	D:maj
4r	.	.	.	.	.	.	.
2r	.	.	.	.	.	.	.
=30	=30	=30	=30	=30	=30	=30	=30
2r	.	1GM	.	voice	.	50.699	G:maj
8r	.	.	.	.	.	.	.
8a	down	.	.	.	.	.	.
8a	the	.	.	.	.	.	.
[8a	high-	.	.	.	.	.	.
=31	=31	=31	=31	=31	=31	=31	=31
8a]	_	1DM	.	voice	.	52.437	D:maj
8f#	-way!.	.	.	.	.	.	.
4r	.	.	.	.	.	.	.
4.r	.	.	.	.	.	.	.
[8a	Go!.	.	.	.	A	.	.
=32	=32	=32	=32	=32	=32	=32	=32
4a]	_	2B-M	.	voice	.	54.175	B-:maj
8r	.	.	.	.	.	.	.
4.a	Go!.	.	.	.	A	.	.
.	.	2CM	.	voice	.	55.045	C:maj
4r	.	.	.	.	.	.	.
=33	=33	=33	=33	=33	=33	=33	=33
*>Letter>A	*>Letter>A	*>Letter>A	*>Letter>A	*>Letter>A	*>Letter>A	*>Letter>A	*>Letter>A
*>Label>Interlude	*>Label>Interlude	*>Label>Interlude	*>Label>Interlude	*>Label>Interlude	*>Label>Interlude	*>Label>Interlude	*>Label>Interlude
1r	.	1DM	newline	guitar	.	55.914	D:maj
=34	=34	=34	=34	=34	=34	=34	=34
1r	.	1DM	.	guitar	.	57.625	D:maj
=35	=35	=35	=35	=35	=35	=35	=35
1r	.	1DM	.	guitar	.	59.337	D:maj
=36	=36	=36	=36	=36	=36	=36	=36
1r	.	1DM	.	guitar	.	61.048	D:maj
=37	=37	=37	=37	=37	=37	=37	=37
*>Letter>B	*>Letter>B	*>Letter>B	*>Letter>B	*>Letter>B	*>Letter>B	*>Letter>B	*>Letter>B
*>Label>Verse	*>Label>Verse	*>Label>Verse	*>Label>Verse	*>Label>Verse	*>Label>Verse	*>Label>Verse	*>Label>Verse
8f#	Look	1DM	newline	voice	.	62.76	D:maj
8f#	at	.	.	.	.	.	.
8f#	the	.	.	.	.	.	.
4f#	sign.	.	.	.	.	.	.
8r	.	.	.	.	.	.	.
8r	.	.	.	.	.	.	.
8f#	We're	.	.	.	.	.	.
=38	=38	=38	=38	=38	=38	=38	=38
8f#	in	1DM	.	voice	.	64.488	D:maj
8d	the	.	.	.	.	.	.
4f#	wrong	.	.	.	.	.	.
4f#	place.	.	.	.	D	.	.
4r	.	.	.	.	.	.	.
=39	=39	=39	=39	=39	=39	=39	=39
8f#	Move	1CM	.	voice	.	66.216	C:maj
4f#	out	.	.	.	.	.	.
4f#	boys;	.	.	.	.	.	.
8A	and	.	.	.	.	.	.
8A	let's	.	.	.	.	.	.
8d	get	.	.	.	.	.	.
=40	=40	=40	=40	=40	=40	=40	=40
8d	read-	1CM	.	voice	.	67.944	C:maj
8d	-y	.	.	.	.	.	.
8d	to	.	.	.	.	.	.
4.f#	race.	.	.	.	D	.	.
4r	.	.	.	.	.	.	.
=41	=41	=41	=41	=41	=41	=41	=41
8f	Four	1B-M	.	voice	.	69.672	B-:maj
8f	fif-	.	.	.	.	.	.
8d	-ty	.	.	.	.	.	.
4f	four's	.	.	.	A	.	.
8r	.	.	.	.	.	.	.
8f	com-	.	.	.	.	.	.
8d	-ing	.	.	.	.	.	.
=42	=42	=42	=42	=42	=42	=42	=42
8f	ov-	1B-M	.	voice	.	71.4	B-:maj
8f	-er	.	.	.	.	.	.
8d	the	.	.	.	.	.	.
4.f	hill.	.	.	.	E	.	.
8r	.	.	.	.	.	.	.
8d	The	.	.	.	.	.	.
=43	=43	=43	=43	=43	=43	=43	=43
8f	man	1AM	.	voice	.	73.128	A:sus4
8f	on	.	.	.	.	.	.
8d	pa-	.	.	.	.	.	.
4f	-trol	.	.	.	A	.	.
8r	.	.	.	.	.	.	.
8d	gon-	.	.	.	.	.	.
8d	-na	.	.	.	.	.	.
=44	=44	=44	=44	=44	=44	=44	=44
8f	give	1AM	.	voice	.	74.856	A:maj
8f	us	.	.	.	.	.	.
8d	a	.	.	.	.	.	.
4.f	bill.	.	.	.	E	.	.
4r	.	.	.	.	.	.	.
=45	=45	=45	=45	=45	=45	=45	=45
4f#	Time's	1DM	.	voice	.	76.584	D:maj
4f#	real	.	.	.	.	.	.
8f#	short.	.	.	.	.	.	.
8f#	You	.	.	.	.	.	.
8f#	know	.	.	.	.	.	.
8d	the	.	.	.	.	.	.
=46	=46	=46	=46	=46	=46	=46	=46
8f#	dis-	1DM	.	voice	.	78.311	D:maj
8f#	-tance	.	.	.	.	.	.
8d	is	.	.	.	.	.	.
4.f#	long.	.	.	.	F	.	.
8r	.	.	.	.	.	.	.
8a	I'd	.	.	.	.	.	.
=47	=47	=47	=47	=47	=47	=47	=47
8a	like	1CM	.	voice	.	80.039	C:maj
8a	to	.	.	.	.	.	.
8a	have	.	.	.	.	.	.
8a	a	.	.	.	.	.	.
4a	jet;	.	.	.	.	.	.
8a	but	.	.	.	.	.	.
8a	it's	.	.	.	.	.	.
=48	=48	=48	=48	=48	=48	=48	=48
8a	not	1CM	.	voice	.	81.767	C:maj
8a	in	.	.	.	.	.	.
8b	the	.	.	.	.	.	.
4.f#	song.	.	.	.	F	.	.
4r	.	.	.	.	.	.	.
=49	=49	=49	=49	=49	=49	=49	=49
8f	Climb	1B-M	.	voice	.	83.495	B-:maj
8f	back	.	.	.	.	.	.
8f	in	.	.	.	.	.	.
8d	the	.	.	.	.	.	.
4f	cab,	.	.	.	.	.	.
8f	cross	.	.	.	.	.	.
8d	your	.	.	.	.	.	.
=50	=50	=50	=50	=50	=50	=50	=50
8f	fing-	1B-M	.	voice	.	85.223	B-:maj
8f	-ers	.	.	.	.	.	.
8d	for	.	.	.	.	.	.
8f	luck.	.	.	.	G	.	.
4.r	.	.	.	.	.	.	.
8d	We	.	.	.	.	.	.
=51	=51	=51	=51	=51	=51	=51	=51
8f	got-	1AM	.	voice	.	86.951	A:sus4
8f	-ta	.	.	.	.	.	.
4f	keep	.	.	.	.	.	.
8f	mov-	.	.	.	.	.	.
8d	-ing|	.	.	.	.	.	.
8f	if	.	.	.	.	.	.
8f	we're	.	.	.	.	.	.
=52	=52	=52	=52	=52	=52	=52	=52
8f	gon-	1AM	.	voice	.	88.679	A:maj
8f	-nga	.	.	.	.	.	.
8f	make	.	.	.	.	.	.
8d	a	.	.	.	.	.	.
8f	buck.	.	.	.	G	.	.
8a	Let	.	.	.	.	.	.
8a	it	.	.	.	.	.	.
[8a	roll	.	.	.	A	.	.
=53	=53	=53	=53	=53	=53	=53	=53
*>Letter>C	*>Letter>C	*>Letter>C	*>Letter>C	*>Letter>C	*>Letter>C	*>Letter>C	*>Letter>C
*>Label>Chorus	*>Label>Chorus	*>Label>Chorus	*>Label>Chorus	*>Label>Chorus	*>Label>Chorus	*>Label>Chorus	*>Label>Chorus
4a]	_	1DM	newline	voice	.	90.407	D:maj
4r	.	.	.	.	.	.	.
2r	.	.	.	.	.	.	.
=54	=54	=54	=54	=54	=54	=54	=54
2r	.	1GM	.	voice	.	92.131	G:maj
8r	.	.	.	.	.	.	.
8a	down	.	.	.	.	.	.
8a	the	.	.	.	.	.	.
[8a	high-	.	.	.	.	.	.
=55	=55	=55	=55	=55	=55	=55	=55
8a]	_	1DM	.	voice	.	93.854	D:maj
8f#	-way!.	.	.	.	.	.	.
4r	.	.	.	.	.	.	.
2r	.	.	.	.	.	.	.
=56	=56	=56	=56	=56	=56	=56	=56
2r	.	1GM	.	voice	.	95.578	G:maj
8r	.	.	.	.	.	.	.
8a	Let	.	.	.	.	.	.
8a	it	.	.	.	.	.	.
[8a	roll	.	.	.	A	.	.
=57	=57	=57	=57	=57	=57	=57	=57
8a]	_	1DM	.	voice	.	97.301	D:maj
4d	_	.	.	.	.	.	.
8d	_	.	.	.	.	.	.
2r	.	.	.	.	.	.	.
=58	=58	=58	=58	=58	=58	=58	=58
2r	.	1GM	.	voice	.	99.025	G:maj
8r	.	.	.	.	.	.	.
8a	down	.	.	.	.	.	.
8a	the	.	.	.	.	.	.
[8a	high-	.	.	.	.	.	.
=59	=59	=59	=59	=59	=59	=59	=59
8a]	_	1DM	.	voice	.	100.749	D:maj
8f#	-way!.	.	.	.	.	.	.
4r	.	.	.	.	.	.	.
4.r	.	.	.	.	.	.	.
[8a	Go!.	.	.	.	A	.	.
=60	=60	=60	=60	=60	=60	=60	=60
4a]	_	2B-M	.	voice	.	102.472	B-:maj
2.r	.	.	.	.	.	.	.
.	.	2CM	.	voice	.	103.334	C:maj
=61	=61	=61	=61	=61	=61	=61	=61
*>Letter>A	*>Letter>A	*>Letter>A	*>Letter>A	*>Letter>A	*>Letter>A	*>Letter>A	*>Letter>A
*>Label>Interlude	*>Label>Interlude	*>Label>Interlude	*>Label>Interlude	*>Label>Interlude	*>Label>Interlude	*>Label>Interlude	*>Label>Interlude
1r	.	1DM	newline	guitar	.	104.196	D:maj
=62	=62	=62	=62	=62	=62	=62	=62
1r	.	2B-M	.	guitar	.	105.883	B-:maj
.	.	2CM	.	guitar	.	106.726	C:maj
=63	=63	=63	=63	=63	=63	=63	=63
1r	.	1DM	.	guitar	.	107.569	D:maj
=64	=64	=64	=64	=64	=64	=64	=64
1r	.	2B-M	.	guitar	.	109.256	B-:maj
.	.	2CM	.	guitar	.	110.099	C:maj
=65	=65	=65	=65	=65	=65	=65	=65
1r	.	1DM	.	guitar	.	110.942	D:maj
=66	=66	=66	=66	=66	=66	=66	=66
1r	.	2B-M	.	guitar	.	112.629	B-:maj
.	.	2CM	.	guitar	.	113.472	C:maj
=67	=67	=67	=67	=67	=67	=67	=67
*>Letter>B	*>Letter>B	*>Letter>B	*>Letter>B	*>Letter>B	*>Letter>B	*>Letter>B	*>Letter>B
*>Label>Solo	*>Label>Solo	*>Label>Solo	*>Label>Solo	*>Label>Solo	*>Label>Solo	*>Label>Solo	*>Label>Solo
1r	.	1DM	newline	.	.	114.316	D:maj
=68	=68	=68	=68	=68	=68	=68	=68
1r	.	1DM	.	.	.	116.023	D:maj
=69	=69	=69	=69	=69	=69	=69	=69
1r	.	1CM	.	.	.	117.73	C:maj
=70	=70	=70	=70	=70	=70	=70	=70
1r	.	1CM	.	.	.	119.437	C:maj
=71	=71	=71	=71	=71	=71	=71	=71
1r	.	1B-M	.	.	.	121.144	B-:maj
=72	=72	=72	=72	=72	=72	=72	=72
1r	.	1B-M	.	.	.	122.852	B-:maj
=73	=73	=73	=73	=73	=73	=73	=73
1r	.	1AM	.	.	.	124.559	A:sus4
=74	=74	=74	=74	=74	=74	=74	=74
1r	.	1AM	.	.	.	126.266	A:maj
=75	=75	=75	=75	=75	=75	=75	=75
1r	.	1DM	.	.	.	127.973	D:maj
=76	=76	=76	=76	=76	=76	=76	=76
1r	.	1DM	.	.	.	129.68	D:maj
=77	=77	=77	=77	=77	=77	=77	=77
1r	.	1CM	.	.	.	131.387	C:maj
=78	=78	=78	=78	=78	=78	=78	=78
1r	.	1CM	.	.	.	133.094	C:maj
=79	=79	=79	=79	=79	=79	=79	=79
1r	.	1B-M	.	.	.	134.802	B-:maj
=80	=80	=80	=80	=80	=80	=80	=80
1r	.	1B-M	.	.	.	136.509	B-:maj
=81	=81	=81	=81	=81	=81	=81	=81
1r	.	1AM	.	.	.	138.216	A:sus4
=82	=82	=82	=82	=82	=82	=82	=82
1r	.	1AM	.	.	.	139.923	A:maj
=83	=83	=83	=83	=83	=83	=83	=83
*>Letter>B	*>Letter>B	*>Letter>B	*>Letter>B	*>Letter>B	*>Letter>B	*>Letter>B	*>Letter>B
*>Label>Solo	*>Label>Solo	*>Label>Solo	*>Label>Solo	*>Label>Solo	*>Label>Solo	*>Label>Solo	*>Label>Solo
1r	.	1DM	newline	.	.	141.63	D:maj
=84	=84	=84	=84	=84	=84	=84	=84
1r	.	1DM	.	.	.	143.321	D:maj
=85	=85	=85	=85	=85	=85	=85	=85
1r	.	1CM	.	.	.	145.011	C:maj
=86	=86	=86	=86	=86	=86	=86	=86
1r	.	1CM	.	.	.	146.701	C:maj
=87	=87	=87	=87	=87	=87	=87	=87
1r	.	1B-M	.	.	.	148.392	B-:maj
=88	=88	=88	=88	=88	=88	=88	=88
1r	.	1B-M	.	.	.	150.082	B-:maj
=89	=89	=89	=89	=89	=89	=89	=89
1r	.	1AM	.	.	.	151.773	A:sus4
=90	=90	=90	=90	=90	=90	=90	=90
1r	.	1AM	.	.	.	153.463	A:maj
=91	=91	=91	=91	=91	=91	=91	=91
1r	.	1DM	.	.	.	155.153	D:maj
=92	=92	=92	=92	=92	=92	=92	=92
1r	.	1DM	.	.	.	156.844	D:maj
=93	=93	=93	=93	=93	=93	=93	=93
1r	.	1CM	.	.	.	158.534	C:maj
=94	=94	=94	=94	=94	=94	=94	=94
1r	.	1CM	.	.	.	160.225	C:maj
=95	=95	=95	=95	=95	=95	=95	=95
1r	.	1B-M	.	.	.	161.915	B-:maj
=96	=96	=96	=96	=96	=96	=96	=96
1r	.	1B-M	.	.	.	163.606	B-:maj
=97	=97	=97	=97	=97	=97	=97	=97
1r	.	1AM	.	.	.	165.296	A:sus4
=98	=98	=98	=98	=98	=98	=98	=98
2r	.	1AM	.	.	.	166.986	A:maj
8r	.	.	.	.	.	.	.
8a	Let	.	.	.	.	.	.
8a	it	.	.	.	.	.	.
[8a	roll.	.	.	.	.	.	.
=99	=99	=99	=99	=99	=99	=99	=99
*>Letter>B	*>Letter>B	*>Letter>B	*>Letter>B	*>Letter>B	*>Letter>B	*>Letter>B	*>Letter>B
*>Label>Solo	*>Label>Solo	*>Label>Solo	*>Label>Solo	*>Label>Solo	*>Label>Solo	*>Label>Solo	*>Label>Solo
4a]	_	1DM	newline	guitar	.	168.677	D:maj
4r	.	.	.	.	.	.	.
2r	.	.	.	.	.	.	.
=100	=100	=100	=100	=100	=100	=100	=100
2r	.	1DM	.	guitar	.	170.393	D:maj
8r	.	.	.	.	.	.	.
8a	Let	.	.	.	.	.	.
8a	it	.	.	.	.	.	.
[8a	roll.	.	.	.	A	.	.
=101	=101	=101	=101	=101	=101	=101	=101
4a]	_	1CM	.	guitar	.	172.109	C:maj
4r	.	.	.	.	.	.	.
2r	.	.	.	.	.	.	.
=102	=102	=102	=102	=102	=102	=102	=102
2r	.	1CM	.	guitar	.	173.825	C:maj
8r	.	.	.	.	.	.	.
8a	Let	.	.	.	.	.	.
8a	it	.	.	.	.	.	.
[8a	roll.	.	.	.	A	.	.
=103	=103	=103	=103	=103	=103	=103	=103
4a]	_	1B-M	.	guitar	.	175.541	B-:maj
4r	.	.	.	.	.	.	.
2r	.	.	.	.	.	.	.
=104	=104	=104	=104	=104	=104	=104	=104
2r	.	1B-M	.	guitar	.	177.257	B-:maj
8r	.	.	.	.	.	.	.
8a	Let	.	.	.	.	.	.
8a	it	.	.	.	.	.	.
[8a	roll.	.	.	.	A	.	.
=105	=105	=105	=105	=105	=105	=105	=105
4a]	_	1AM	.	guitar	.	178.973	A:sus4
4r	.	.	.	.	.	.	.
2r	.	.	.	.	.	.	.
=106	=106	=106	=106	=106	=106	=106	=106
2r	.	1AM	.	guitar	.	180.689	A:maj
8r	.	.	.	.	.	.	.
8f#	Let	.	.	.	.	.	.
8g	it	.	.	.	.	.	.
[8a	roll	.	.	.	A	.	.
=107	=107	=107	=107	=107	=107	=107	=107
*>Letter>C	*>Letter>C	*>Letter>C	*>Letter>C	*>Letter>C	*>Letter>C	*>Letter>C	*>Letter>C
*>Label>Chorus	*>Label>Chorus	*>Label>Chorus	*>Label>Chorus	*>Label>Chorus	*>Label>Chorus	*>Label>Chorus	*>Label>Chorus
4a]	_	1DM	newline	voice	.	182.405	D:maj
4r	.	.	.	.	.	.	.
2r	.	.	.	.	.	.	.
=108	=108	=108	=108	=108	=108	=108	=108
2r	.	1GM	.	voice	.	184.107	G:maj
8r	.	.	.	.	.	.	.
8a	down	.	.	.	.	.	.
8a	the	.	.	.	.	.	.
[8a	high-	.	.	.	.	.	.
=109	=109	=109	=109	=109	=109	=109	=109
8a]	_	1DM	.	voice	.	185.809	D:maj
8f#	-way!.	.	.	.	.	.	.
4r	.	.	.	.	.	.	.
2r	.	.	.	.	.	.	.
=110	=110	=110	=110	=110	=110	=110	=110
2r	.	1GM	.	voice	.	187.512	G:maj
8r	.	.	.	.	.	.	.
8f#	Let	.	.	.	.	.	.
8g	it	.	.	.	.	.	.
[8a	roll	.	.	.	A	.	.
=111	=111	=111	=111	=111	=111	=111	=111
8a]	_	1DM	.	voice	.	189.214	D:maj
8f#	_	.	.	.	.	.	.
4r	.	.	.	.	.	.	.
2r	.	.	.	.	.	.	.
=112	=112	=112	=112	=112	=112	=112	=112
2r	.	1GM	.	voice	.	190.917	G:maj
8r	.	.	.	.	.	.	.
8a	down	.	.	.	.	.	.
8a	the	.	.	.	.	.	.
[8a	high-	.	.	.	.	.	.
=113	=113	=113	=113	=113	=113	=113	=113
8a]	_	1DM	.	voice	.	192.619	D:maj
8f#	-way!.	.	.	.	.	.	.
4r	.	.	.	.	.	.	.
4.r	.	.	.	.	.	.	.
[8a	Go!.	.	.	.	A	.	.
=114	=114	=114	=114	=114	=114	=114	=114
4a]	_	2B-M	.	voice	.	194.321	B-:maj
8r	.	.	.	.	.	.	.
[4a	Go!.	.	.	.	A	.	.
.	.	2CM	.	voice	.	195.172	C:maj
16a]	_	.	.	.	.	.	.
16f#	let	.	.	.	.	.	.
8g	it	.	.	.	.	.	.
[8a	roll	.	.	.	A	.	.
=115	=115	=115	=115	=115	=115	=115	=115
*>Letter>C	*>Letter>C	*>Letter>C	*>Letter>C	*>Letter>C	*>Letter>C	*>Letter>C	*>Letter>C
*>Label>Chorus	*>Label>Chorus	*>Label>Chorus	*>Label>Chorus	*>Label>Chorus	*>Label>Chorus	*>Label>Chorus	*>Label>Chorus
4a]	_	1DM	newline	voice	.	196.024	D:maj
4r	.	.	.	.	.	.	.
2r	.	.	.	.	.	.	.
=116	=116	=116	=116	=116	=116	=116	=116
2r	.	1GM	.	voice	.	197.717	G:maj
8r	.	.	.	.	.	.	.
8a	down	.	.	.	.	.	.
8a	the	.	.	.	.	.	.
[8a	high-	.	.	.	.	.	.
=117	=117	=117	=117	=117	=117	=117	=117
8a]	_	1DM	.	voice	.	199.409	D:maj
8f#	-way!.	.	.	.	.	.	.
4r	.	.	.	.	.	.	.
2r	.	.	.	.	.	.	.
=118	=118	=118	=118	=118	=118	=118	=118
2r	.	1GM	.	voice	.	201.102	G:maj
8r	.	.	.	.	.	.	.
8f#	Let	.	.	.	.	.	.
8g	it	.	.	.	.	.	.
[8a	roll	.	.	.	A	.	.
=119	=119	=119	=119	=119	=119	=119	=119
8a]	_	1DM	.	voice	.	202.795	D:maj
8f#	_	.	.	.	.	.	.
4r	.	.	.	.	.	.	.
2r	.	.	.	.	.	.	.
=120	=120	=120	=120	=120	=120	=120	=120
2r	.	1GM	.	voice	.	204.488	G:maj
8r	.	.	.	.	.	.	.
8a	down	.	.	.	.	.	.
8a	the	.	.	.	.	.	.
[8a	high-	.	.	.	.	.	.
=121	=121	=121	=121	=121	=121	=121	=121
8a]	_	1DM	.	voice	.	206.181	D:maj
8f#	-way!.	.	.	.	.	.	.
4r	.	.	.	.	.	.	.
4.r	.	.	.	.	.	.	.
[8a	Go!.	.	.	.	A	.	.
=122	=122	=122	=122	=122	=122	=122	=122
4a]	_	2B-M	.	voice	.	207.874	B-:maj
8r	.	.	.	.	.	.	.
4.a	Go!.	.	.	.	A	.	.
.	.	2CM	.	voice	.	208.72	C:maj
8r	.	.	.	.	.	.	.
[8a	Go!.	.	.	.	A	.	.
=123	=123	=123	=123	=123	=123	=123	=123
*>Letter>C2	*>Letter>C2	*>Letter>C2	*>Letter>C2	*>Letter>C2	*>Letter>C2	*>Letter>C2	*>Letter>C2
*>Label>Interlude	*>Label>Interlude	*>Label>Interlude	*>Label>Interlude	*>Label>Interlude	*>Label>Interlude	*>Label>Interlude	*>Label>Interlude
4a]	_	1N	newline	guitar	.	209.566	N.C.
4.r	.	.	.	.	.	.	.
8r	.	.	.	.	.	.	.
4r	.	.	.	.	.	.	.
=124	=124	=124	=124	=124	=124	=124	=124
1r	.	1N	.	guitar	.	211.305	N.C.
=125	=125	=125	=125	=125	=125	=125	=125
1r	.	1N	.	guitar	.	213.043	N.C.
=126	=126	=126	=126	=126	=126	=126	=126
2r	.	1N	.	guitar	.	214.781	N.C.
8r	.	.	.	.	.	.	.
8a	Let	.	.	.	.	.	.
8a	it	.	.	.	.	.	.
[8a	roll	.	.	.	A	.	.
=127	=127	=127	=127	=127	=127	=127	=127
*>Letter>C	*>Letter>C	*>Letter>C	*>Letter>C	*>Letter>C	*>Letter>C	*>Letter>C	*>Letter>C
*>Label>Outro	*>Label>Outro	*>Label>Outro	*>Label>Outro	*>Label>Outro	*>Label>Outro	*>Label>Outro	*>Label>Outro
4a]	_	1DM	newline	voice	.	216.519	D:maj
4r	.	.	.	.	.	.	.
2r	.	.	.	.	.	.	.
=128	=128	=128	=128	=128	=128	=128	=128
2r	.	1GM	.	voice	.	218.228	G:maj
8r	.	.	.	.	.	.	.
8a	down	.	.	.	.	.	.
8a	the	.	.	.	.	.	.
[8a	high-	.	.	.	.	.	.
=129	=129	=129	=129	=129	=129	=129	=129
8a]	_	1DM	.	voice	.	219.938	D:maj
8f#	-way!.	.	.	.	.	.	.
4r	.	.	.	.	.	.	.
2r	.	.	.	.	.	.	.
=130	=130	=130	=130	=130	=130	=130	=130
2r	.	1GM	.	voice	.	221.647	G:maj
8r	.	.	.	.	.	.	.
8f#	Let	.	.	.	.	.	.
8g	it	.	.	.	.	.	.
[8a	roll	.	.	.	A	.	.
=131	=131	=131	=131	=131	=131	=131	=131
8a]	_	1DM	.	voice	.	223.356	D:maj
16f#	_	.	.	.	.	.	.
16e	_	.	.	.	.	.	.
8d	_	.	.	.	.	.	.
8r	.	.	.	.	.	.	.
2r	.	.	.	.	.	.	.
=132	=132	=132	=132	=132	=132	=132	=132
2r	.	1GM	.	voice	.	225.065	G:maj
8r	.	.	.	.	.	.	.
8a	down	.	.	.	.	.	.
8a	the	.	.	.	.	.	.
[8a	high-	.	.	.	.	.	.
=133	=133	=133	=133	=133	=133	=133	=133
8a]	_	1DM	.	voice	.	226.774	D:maj
4f#	-way!.	.	.	.	.	.	.
4f#	_	.	.	.	.	.	.
4d	_	.	.	.	.	.	.
[8a	Go!.	.	.	.	A	.	.
=134	=134	=134	=134	=134	=134	=134	=134
4a]	_	2B-M	.	voice	.	228.483	B-:maj
8r	.	.	.	.	.	.	.
4.a	Go!.	.	.	.	A	.	.
.	.	2CM	.	voice	.	229.338	C:maj
8r	.	.	.	.	.	.	.
[8a	Go!.	.	.	.	A	.	.
=135	=135	=135	=135	=135	=135	=135	=135
4a]	_	1DM	newline	voice	.	230.192	D:maj
2.r	.	.	.	.	.	.	.
r;	.	1r;	.	r	.	236.066	N.C.
r;	.	1r;	.	r	.	240.248	N.C.
*-	*-	*-	*-	*-	*-	*-	*-
!!!BillboardChartDate: 1975/01/25
!!!BillboardPeak: 14
!!!BillboardWeeksOnChart: 11
!!!COC: Bachman-Turner Overdrive
!!!ENC: Nathaniel Condit-Schultz
!!!EST: Awating manual error checking and editing.
!!!OTL: Roll On Down The Highway
!!!RDF**chordsym: original McGill chord annotation + (implied pitch class set, with bass pitch in first position)
!!!RDF**harmony: **recip + pitch class of root + harmonic quality
!!!RDF**leadinstrument: original McGill primary instrumentation annotation
!!!RDF**phrase: newline = linebreak in original McGill transcription
!!!RDF**timestamp: McGill audio timestamp in seconds
!!!RDT: 2017/01/12/
!!!SampleActualRank: 55
!!!SampleID#: 0351
!!!SampleTargetRank: 55
